; G-Code generated by Simplify3D(R) Version 4.1.2
; Mar 23, 2021 at 8:20:54 PM
; Settings Summary
;   processName,Process1
;   applyToModels,thorndike_seg1_solid
;   profileName,LulzBot Taz 6 (modified)
;   profileVersion,2016-05-21 16:22:23
;   baseProfile,LulzBot TAZ 5 (modified)
;   printMaterial,PLA
;   printQuality,Medium
;   printExtruders,
;   extruderName,Primary Extruder
;   extruderToolheadNumber,0
;   extruderDiameter,0.8
;   extruderAutoWidth,0
;   extruderWidth,12.7
;   extrusionMultiplier,1
;   extruderUseRetract,0
;   extruderRetractionDistance,1.6
;   extruderExtraRestartDistance,0
;   extruderRetractionZLift,0.3
;   extruderRetractionSpeed,5400
;   extruderUseCoasting,0
;   extruderCoastingDistance,0.05
;   extruderUseWipe,0
;   extruderWipeDistance,5
;   primaryExtruder,0
;   layerHeight,5.08
;   topSolidLayers,0
;   bottomSolidLayers,0
;   perimeterOutlines,2
;   printPerimetersInsideOut,1
;   startPointOption,3
;   startPointOriginX,0
;   startPointOriginY,0
;   sequentialIslands,0
;   spiralVaseMode,0
;   firstLayerHeightPercentage,100
;   firstLayerWidthPercentage,100
;   firstLayerUnderspeed,0.25
;   useRaft,0
;   raftExtruder,0
;   raftTopLayers,3
;   raftBaseLayers,0
;   raftOffset,3
;   raftSeparationDistance,0.14
;   raftTopInfill,100
;   aboveRaftSpeedMultiplier,0.3
;   useSkirt,0
;   skirtExtruder,0
;   skirtLayers,1
;   skirtOutlines,2
;   skirtOffset,10
;   usePrimePillar,0
;   primePillarExtruder,999
;   primePillarWidth,12
;   primePillarLocation,7
;   primePillarSpeedMultiplier,1
;   useOozeShield,0
;   oozeShieldExtruder,999
;   oozeShieldOffset,2
;   oozeShieldOutlines,1
;   oozeShieldSidewallShape,1
;   oozeShieldSidewallAngle,30
;   oozeShieldSpeedMultiplier,1
;   infillExtruder,0
;   internalInfillPattern,Rectilinear
;   externalInfillPattern,Rectilinear
;   infillPercentage,0
;   outlineOverlapPercentage,0
;   infillExtrusionWidthPercentage,100
;   minInfillLength,0
;   infillLayerInterval,1
;   internalInfillAngles,0
;   overlapInternalInfillAngles,0
;   externalInfillAngles,45,-45
;   generateSupport,0
;   supportExtruder,0
;   supportInfillPercentage,30
;   supportExtraInflation,0
;   supportBaseLayers,0
;   denseSupportExtruder,0
;   denseSupportLayers,0
;   denseSupportInfillPercentage,70
;   supportLayerInterval,1
;   supportHorizontalPartOffset,0.3
;   supportUpperSeparationLayers,1
;   supportLowerSeparationLayers,1
;   supportType,0
;   supportGridSpacing,4
;   maxOverhangAngle,45
;   supportAngles,0
;   temperatureName,Primary Extruder,Heated Bed
;   temperatureNumber,0,0
;   temperatureSetpointCount,1,1
;   temperatureSetpointLayers,1,1
;   temperatureSetpointTemperatures,240,110
;   temperatureStabilizeAtStartup,1,1
;   temperatureHeatedBed,0,1
;   fanLayers,1
;   fanSpeeds,0
;   blipFanToFullPower,1
;   adjustSpeedForCooling,0
;   minSpeedLayerTime,15
;   minCoolingSpeedSlowdown,20
;   increaseFanForCooling,0
;   minFanLayerTime,45
;   maxCoolingFanSpeed,100
;   increaseFanForBridging,0
;   bridgingFanSpeed,100
;   use5D,1
;   relativeEdistances,0
;   allowEaxisZeroing,1
;   independentExtruderAxes,0
;   includeM10123,0
;   stickySupport,1
;   applyToolheadOffsets,0
;   gcodeXoffset,0
;   gcodeYoffset,0
;   gcodeZoffset,-0.16
;   overrideMachineDefinition,1
;   machineTypeOverride,0
;   strokeXoverride,9999
;   strokeYoverride,6705
;   strokeZoverride,3048
;   originOffsetXoverride,0
;   originOffsetYoverride,0
;   originOffsetZoverride,0
;   homeXdirOverride,-1
;   homeYdirOverride,-1
;   homeZdirOverride,-1
;   flipXoverride,1
;   flipYoverride,-1
;   flipZoverride,1
;   toolheadOffsets,0,0|0,0|0,0|0,0|0,0|0,0
;   overrideFirmwareConfiguration,1
;   firmwareTypeOverride,RepRap (Marlin/Repetier/Sprinter)
;   GPXconfigOverride,r2
;   baudRateOverride,250000
;   overridePrinterModels,1
;   printerModelsOverride,LulzBot_TAZ3.stl
;   startingGcode,G26                          		; clear potential 'probe fail' condition,G21                         		; set units to Millimetres,M107                        		; disable fans,G90                          		; absolute positioning,M82                          		; set extruder to absolute mode,G92 E0                       		; set extruder position to 0,M140 S[bed0_temperature]		; get bed heating up,G28 XY                       		; home X and Y,G1 X-19 Y258 F1000           		; move to safe homing position,M109 S160                    		; soften filament for z homing,G28 Z                        		; home Z,M104 S150                    		; wipe temp,G1 E-30 F100                 		; suck up XXmm of filament,G1 X-15 Y100 F3000           		; move above wiper pad,G1 Z1                        		; push nozzle into wiper,G1 X-17 Y95 F1000            		; slow wipe,G1 X-17 Y90 F1000            		; slow wipe,G1 X-17 Y85 F1000            		; slow wipe,G1 X-15 Y90 F1000            		; slow wipe,G1 X-17 Y80 F1000            		; slow wipe,G1 X-15 Y95 F1000            		; slow wipe,G1 X-17 Y75 F2000            		; fast wipe,G1 X-15 Y65 F2000            		; fast wipe,G1 X-17 Y70 F2000            		; fast wipe,G1 X-15 Y60 F2000            		; fast wipe,G1 X-17 Y55 F2000            		; fast wipe,G1 X-15 Y50 F2000            		; fast wipe,G1 X-17 Y40 F2000            		; fast wipe,G1 X-15 Y45 F2000            		; fast wipe,G1 X-17 Y35 F2000            		; fast wipe,G1 X-15 Y40 F2000            		; fast wipe,G1 X-17 Y70 F2000            		; fast wipe,G1 X-15 Y30 Z2 F2000       		; fast wipe,G1 X-17 Y35 F2000            		; fast wipe,G1 X-15 Y25 F2000            		; fast wipe,G1 X-17 Y30 F2000            		; fast wipe,G1 X-15 Y25 Z1.5 F1000       		; slow wipe,G1 X-17 Y23 F1000            		; slow wipe,G1 Z10                       		; raise extruder,M109 S150                   	 	; heat to probe temp,G1 X-9 Y-9                   		; move above probe,M204 S100                    		; set accel for probing,G29                          		; probe sequence (for auto-leveling),M204 S500                    		; set accel back to normal,G1 X0 Y0 Z15 F5000           		; get out the way,M400                         		; clear buffer,G4 S1                        		; pause,M117 Makin' shit toasty...              	; LCD status message,M140 S[bed0_temperature]		; get bed heating up,M109 S[extruder0_temperature]    	; set extruder temp and wait,M190 S[bed0_temperature]		; get bed temping up during first layer,G1 Z2 E0 F75                 		; extrude filament back into nozzle,M117 Gettin' it on...         		; LCD status message,;Printing starts here
;   layerChangeGcode,
;   retractionGcode,
;   toolChangeGcode,
;   endingGcode,; layer end,M400                           	; wait for moves to finish,M104 S0                        	; hotend off,M107                           	; fans off,G91                            	; relative positioning,G1 E-1 F300                    	; retract the filament a bit before lifting the nozzle to release some of the pressure,G1 Z+20 E-5 X-20 Y-20 F3000    	; move Z up a bit and retract filament even more,M117 Cooling... Wait Damnit!      ; progress indicator message,G90                            	; absolute positioning,G1 Y0 F3000                    	; move to cooling position,M190 S50                       	; set bed to cool off,G1 Y280 F3000                  	; present finished print,M84                            	; steppers off,G90                            	; absolute positioning,M117 Shit's done y'all!            	; progress indicator message
;   exportFileFormat,gcode
;   celebration,0
;   celebrationSong,Funky Town
;   postProcessing,
;   defaultSpeed,900
;   outlineUnderspeed,1
;   solidInfillUnderspeed,1
;   supportUnderspeed,0.95
;   rapidXYspeed,5400
;   rapidZspeed,1002
;   minBridgingArea,50
;   bridgingExtraInflation,0
;   bridgingExtrusionMultiplier,1
;   bridgingSpeedMultiplier,1
;   useFixedBridgingAngle,0
;   fixedBridgingAngle,0
;   applyBridgingToPerimeters,0
;   filamentDiameters,2.85|2.85|2.85|2.85|2.85|2.85
;   filamentPricesPerKg,46|46|46|46|46|46
;   filamentDensities,1.25|1.25|1.25|1.25|1.25|1.25
;   useMinPrintHeight,0
;   minPrintHeight,0
;   useMaxPrintHeight,0
;   maxPrintHeight,0
;   useDiaphragm,0
;   diaphragmLayerInterval,20
;   robustSlicing,1
;   mergeAllIntoSolid,0
;   onlyRetractWhenCrossingOutline,0
;   retractBetweenLayers,0
;   useRetractionMinTravel,0
;   retractionMinTravel,3
;   retractWhileWiping,1
;   onlyWipeOutlines,0
;   avoidCrossingOutline,0
;   maxMovementDetourFactor,10
;   toolChangeRetractionDistance,12
;   toolChangeExtraRestartDistance,-0.5
;   toolChangeRetractionSpeed,600
;   externalThinWallType,0
;   internalThinWallType,2
;   thinWallAllowedOverlapPercentage,50
;   singleExtrusionMinLength,1
;   singleExtrusionMinPrintingWidthPercentage,50
;   singleExtrusionMaxPrintingWidthPercentage,200
;   singleExtrusionEndpointExtension,0.2
;   horizontalSizeCompensation,0
G90
M82
M106 S0
G26                          		; clear potential 'probe fail' condition
G21                         		; set units to Millimetres
M107                        		; disable fans
G90                          		; absolute positioning
M82                          		; set extruder to absolute mode
G92 E0                       		; set extruder position to 0
M140 S110		; get bed heating up
G28 XY                       		; home X and Y
G1 X-19 Y258 F1000           		; move to safe homing position
M109 S160                    		; soften filament for z homing
G28 Z                        		; home Z
M104 S150                    		; wipe temp
G1 E-30 F100                 		; suck up XXmm of filament
G1 X-15 Y100 F3000           		; move above wiper pad
G1 Z1                        		; push nozzle into wiper
G1 X-17 Y95 F1000            		; slow wipe
G1 X-17 Y90 F1000            		; slow wipe
G1 X-17 Y85 F1000            		; slow wipe
G1 X-15 Y90 F1000            		; slow wipe
G1 X-17 Y80 F1000            		; slow wipe
G1 X-15 Y95 F1000            		; slow wipe
G1 X-17 Y75 F2000            		; fast wipe
G1 X-15 Y65 F2000            		; fast wipe
G1 X-17 Y70 F2000            		; fast wipe
G1 X-15 Y60 F2000            		; fast wipe
G1 X-17 Y55 F2000            		; fast wipe
G1 X-15 Y50 F2000            		; fast wipe
G1 X-17 Y40 F2000            		; fast wipe
G1 X-15 Y45 F2000            		; fast wipe
G1 X-17 Y35 F2000            		; fast wipe
G1 X-15 Y40 F2000            		; fast wipe
G1 X-17 Y70 F2000            		; fast wipe
G1 X-15 Y30 Z2 F2000       		; fast wipe
G1 X-17 Y35 F2000            		; fast wipe
G1 X-15 Y25 F2000            		; fast wipe
G1 X-17 Y30 F2000            		; fast wipe
G1 X-15 Y25 Z1.5 F1000       		; slow wipe
G1 X-17 Y23 F1000            		; slow wipe
G1 Z10                       		; raise extruder
M109 S150                   	 	; heat to probe temp
G1 X-9 Y-9                   		; move above probe
M204 S100                    		; set accel for probing
G29                          		; probe sequence (for auto-leveling)
M204 S500                    		; set accel back to normal
G1 X0 Y0 Z15 F5000           		; get out the way
M400                         		; clear buffer
G4 S1                        		; pause
M117 Makin' shit toasty...              	; LCD status message
M140 S110		; get bed heating up
M109 S240    	; set extruder temp and wait
M190 S110		; get bed temping up during first layer
G1 Z2 E0 F75                 		; extrude filament back into nozzle
M117 Gettin' it on...         		; LCD status message
;Printing starts here
; process Process1
; layer 1, Z = 4.920
T0
; feature inner perimeter
; tool H5.080 W12.700
G1 Z4.920 F1002
G1 X358.955 Y425.873 F5400
G92 E0.0000
G1 X379.287 Y411.108 E254.1218 F225
G1 X402.986 Y396.848 E533.8348
G1 X430.157 Y383.325 E840.7706
G1 X463.201 Y369.937 E1201.3401
G1 X496.926 Y359.019 E1559.8271
G1 X504.669 Y357.066 E1640.5851
G1 X505.342 Y356.862 E1647.6992
G1 X534.879 Y349.412 E1955.7663
G1 X575.557 Y341.863 E2374.1793
G1 X618.438 Y336.631 E2811.0556
G1 X663.141 Y333.930 E3263.9716
G1 X707.550 Y333.924 E3713.0874
G1 X753.956 Y336.767 E4183.2821
G1 X799.598 Y342.529 E4648.5306
G1 X843.338 Y351.052 E5099.1945
G1 X865.573 Y356.953 E5331.8529
G1 X866.026 Y357.096 E5336.6529
G1 X880.656 Y360.977 E5489.7231
G1 X914.299 Y372.365 E5848.9299
G1 X947.691 Y386.526 E6215.7446
G1 X974.499 Y400.530 E6521.6191
G1 X997.771 Y415.272 E6800.2187
G1 X1017.480 Y430.420 E7051.6143
G1 X1035.165 Y447.193 E7298.1096
G1 X1047.976 Y462.458 E7499.6480
G1 X1057.891 Y477.625 E7682.8975
G1 X1065.117 Y492.613 E7851.1744
G1 X1069.821 Y507.272 E8006.8709
G1 X1072.362 Y523.319 E8171.1772
G1 X1072.362 Y537.585 E8315.4484
G1 X1069.988 Y552.899 E8472.1781
G1 X1065.243 Y567.938 E8631.6567
G1 X1058.013 Y583.028 E8800.8754
G1 X1048.254 Y598.040 E8981.9568
G1 X1035.752 Y613.054 E9179.5469
G1 X1018.781 Y629.341 E9417.4280
G1 X999.887 Y644.111 E9659.9591
G1 X977.628 Y658.516 E9928.0930
G1 X951.795 Y672.372 E10224.5617
G1 X923.143 Y685.056 E10541.4493
G1 X894.598 Y695.335 E10848.2737
G1 X894.156 Y695.506 E10853.0649
G1 X890.388 Y696.863 E10893.5725
G1 X854.059 Y707.239 E11275.6639
G1 X814.930 Y715.710 E11680.5435
G1 X773.143 Y722.054 E12107.9913
G1 X729.193 Y725.989 E12554.2448
G1 X685.480 Y727.277 E12996.5145
G1 X639.388 Y725.847 E13462.8742
G1 X593.312 Y721.499 E13930.9124
G1 X548.666 Y714.316 E14388.2408
G1 X506.093 Y704.429 E14830.2398
G1 X470.658 Y693.569 E15205.0597
G1 X436.123 Y680.189 E15579.6142
G1 X407.687 Y666.558 E15898.5216
G1 X382.872 Y652.103 E16188.9536
G1 X361.630 Y637.104 E16451.9385
G1 X342.429 Y620.460 E16708.9184
G1 X328.240 Y605.153 E16920.0016
G1 X317.035 Y589.864 E17111.6981
G1 X308.678 Y574.838 E17285.5763
G1 X302.885 Y560.004 E17446.6292
G1 X299.210 Y543.655 E17616.1008
G1 X298.295 Y530.535 E17749.1119
G1 X299.535 Y515.062 E17906.0946
G1 X303.194 Y499.877 E18064.0537
G1 X309.235 Y484.870 E18227.6595
G1 X317.775 Y469.866 E18402.2577
G1 X329.049 Y454.746 E18592.9941
G1 X343.179 Y439.682 E18801.8676
G1 X358.955 Y425.873 E19013.9058
; feature outer perimeter
G1 X351.026 Y415.936 F5400
G92 E0.0000
G1 X372.269 Y400.509 E265.5145 F225
G1 X396.873 Y385.704 E555.9107
G1 X424.936 Y371.737 E872.9198
G1 X458.856 Y357.995 E1243.0426
G1 X493.413 Y346.807 E1610.3883
G1 X501.270 Y344.825 E1692.3351
G1 X501.943 Y344.621 E1699.4479
G1 X532.165 Y336.999 E2014.6532
G1 X573.628 Y329.304 E2441.1371
G1 X617.285 Y323.977 E2885.9230
G1 X662.757 Y321.230 E3346.6323
G1 X707.938 Y321.224 E3803.5561
G1 X755.141 Y324.116 E4281.8249
G1 X801.610 Y329.983 E4755.5046
G1 X846.184 Y338.668 E5214.7666
G1 X869.110 Y344.753 E5454.6503
G1 X869.562 Y344.895 E5459.4428
G1 X884.324 Y348.811 E5613.8952
G1 X918.729 Y360.456 E5981.2247
G1 X918.949 Y360.542 E5983.6173
G1 X953.119 Y375.034 E6358.9822
G1 X980.848 Y389.518 E6675.3652
G1 X1005.054 Y404.851 E6965.1416
G1 X1025.742 Y420.752 E7229.0228
G1 X1044.429 Y438.476 E7489.4877
G1 X1058.191 Y454.875 E7705.9957
G1 X1068.973 Y471.366 E7905.2545
G1 X1076.940 Y487.893 E8090.8019
G1 X1082.211 Y504.322 E8265.2927
G1 X1085.062 Y522.320 E8449.5776
G1 X1085.062 Y538.563 E8613.8541
G1 X1082.390 Y555.800 E8790.2489
G1 X1077.085 Y572.616 E8968.5803
G1 X1069.110 Y589.259 E9155.2154
G1 X1058.494 Y605.591 E9352.2138
G1 X1045.057 Y621.726 E9564.5599
G1 X1027.110 Y638.950 E9816.1282
G1 X1007.262 Y654.466 E10070.9039
G1 X984.091 Y669.461 E10350.0332
G1 X957.375 Y683.791 E10656.6300
G1 X927.870 Y696.852 E10982.9420
G1 X899.048 Y707.230 E11292.7446
G1 X898.607 Y707.402 E11297.5386
G1 X894.287 Y708.957 E11343.9666
G1 X857.149 Y719.564 E11734.5647
G1 X817.229 Y728.207 E12147.6386
G1 X774.663 Y734.669 E12583.0469
G1 X729.947 Y738.672 E13037.0844
G1 X685.470 Y739.983 E13487.0825
G1 X638.593 Y738.529 E13961.3811
G1 X591.706 Y734.104 E14437.6724
G1 X546.218 Y726.786 E14903.6167
G1 X502.792 Y716.701 E15354.4745
G1 X466.497 Y705.577 E15738.3800
G1 X431.076 Y691.854 E16122.5447
G1 X401.736 Y677.789 E16451.5965
G1 X376.000 Y662.797 E16752.8091
G1 X353.788 Y647.114 E17027.7947
G1 X333.586 Y629.602 E17298.1756
G1 X318.429 Y613.250 E17523.6665
G1 X306.322 Y596.731 E17730.7926
